media/img/icons/light/fdiff.svg

<?xml version="1.0" encoding="UTF-8" standalone="no"?>
<svg
   width="16"
   height="16"
   viewBox="0 0 16 16"
   fill="currentColor"
   version="1.1"
   id="svg8324"
   sodipodi:docname="diff.svg"
   inkscape:version="1.2 (dc2aeda, 2022-05-15)"
   xmlns:inkscape="http://www.inkscape.org/namespaces/inkscape"
   xmlns:sodipodi="http://sodipodi.sourceforge.net/DTD/sodipodi-0.dtd"
   xmlns="http://www.w3.org/2000/svg"
   xmlns:svg="http://www.w3.org/2000/svg">
  <defs
     id="defs8328" />
  <sodipodi:namedview
     id="namedview8326"
     pagecolor="#ffffff"
     bordercolor="#666666"
     borderopacity="1.0"
     inkscape:showpageshadow="2"
     inkscape:pageopacity="0.0"
     inkscape:pagecheckerboard="0"
     inkscape:deskcolor="#d1d1d1"
     showgrid="false"
     inkscape:zoom="51.375"
     inkscape:cx="8.0097324"
     inkscape:cy="8"
     inkscape:window-width="1920"
     inkscape:window-height="972"
     inkscape:window-x="0"
     inkscape:window-y="25"
     inkscape:window-maximized="1"
     inkscape:current-layer="svg8324" />
  <path
     fill-rule="evenodd"
     clip-rule="evenodd"
     d="M2 3.5l.5-.5h5l.5.5v9l-.5.5h-5l-.5-.5v-9zM3 12h4V6H3v6zm0-7h4V4H3v1zm6.5-2h5l.5.5v9l-.5.5h-5l-.5-.5v-9l.5-.5zm.5 9h4v-2h-4v2zm0-4h4V4h-4v4z"
     id="path8322"
     style="fill:#3b3b3b;fill-opacity:1" />
</svg>

<svg width="16" height="16" viewBox="0 0 16 16" fill="none" xmlns="http://www.w3.org/2000/svg">
<path fill-rule="evenodd" clip-rule="evenodd" d="M2 3.5L2.5 3H7.5L8 3.5V12.5L7.5 13H2.5L2 12.5V3.5ZM3 12H7V6H3V12ZM3 5H7V4H3V5ZM9.5 3H14.5L15 3.5V12.5L14.5 13H9.5L9 12.5V3.5L9.5 3ZM10 12H14V10H10V12ZM10 8H14V4H10V8Z" fill="#424242"/>
</svg>
